src/public/img/icons/chart.svg

<svg width="20" height="20" viewBox="0 0 20 20" fill="none" xmlns="http://www.w3.org/2000/svg">
<path d="M2.75 4.75C2.75 3.64543 3.64543 2.75 4.75 2.75H15.25C16.3546 2.75 17.25 3.64543 17.25 4.75V15.25C17.25 16.3546 16.3546 17.25 15.25 17.25H4.75C3.64543 17.25 2.75 16.3546 2.75 15.25V4.75Z" stroke="#111A2C" stroke-width="1.5" stroke-linecap="round" stroke-linejoin="round"/>
<path d="M6.75 13.25V7.75" stroke="#111A2C" stroke-width="1.5" stroke-linecap="round" stroke-linejoin="round"/>
<path d="M13.25 13.25V7.75" stroke="#111A2C" stroke-width="1.5" stroke-linecap="round" stroke-linejoin="round"/>
<path d="M10 13.25V10.75" stroke="#111A2C" stroke-width="1.5" stroke-linecap="round" stroke-linejoin="round"/>
</svg>

<svg xmlns="http://www.w3.org/2000/svg" width="20" height="20" fill="none">
  <path stroke="#111A2C" stroke-linecap="round" stroke-linejoin="round" stroke-width="1.5" d="M2.75 4.75a2 2 0 0 1 2-2h10.5a2 2 0 0 1 2 2v10.5a2 2 0 0 1-2 2H4.75a2 2 0 0 1-2-2V4.75Zm4 8.5v-5.5m6.5 5.5v-5.5M10 13.25v-2.5"/>
</svg>
